assets/img/blob.svg

<svg xmlns="http://www.w3.org/2000/svg" class="home-blob" viewBox="0 0 550 591"><mask id="a" mask-type="alpha"><path d="M263 47.178a24 24 0 0 1 24 0l214.157 123.644a23.998 23.998 0 0 1 12 20.784v247.288a23.998 23.998 0 0 1-12 20.784L287 583.322a24 24 0 0 1-24 0L48.843 459.678a24 24 0 0 1-12-20.784V191.606a24 24 0 0 1 12-20.784L263 47.178Z"/></mask><g mask="url(#a)"><path d="M263 47.178a24 24 0 0 1 24 0l214.157 123.644a23.998 23.998 0 0 1 12 20.784v247.288a23.998 23.998 0 0 1-12 20.784L287 583.322a24 24 0 0 1-24 0L48.843 459.678a24 24 0 0 1-12-20.784V191.606a24 24 0 0 1 12-20.784L263 47.178Z"/><path fill="url(#b)" d="M37 0h476v630H37z"/></g><path fill="url(#c)" d="M37 0h476v300H37z"/><defs><pattern id="b" width="1" height="1" patternContentUnits="objectBoundingBox"><use href="#d" transform="matrix(.00143 0 0 .00108 .04 0)"/></pattern><pattern id="c" width="1" height="1" patternContentUnits="objectBoundingBox"><use href="#d" transform="matrix(.00143 0 0 .00227 .04 0)"/></pattern><image id="d" width="640" height="925" href="/assets/img/perfil.png"/></defs></svg>

<svg viewBox="0 0 550 591" xmlns="http://www.w3.org/2000/svg">
   <mask id="maskBlob" mask-type="alpha">
      <path d="M263 47.1782C270.426 42.891 279.574 42.891 287 47.1782L501.157 
      170.822C508.583 175.109 513.157 183.032 513.157 191.606V438.894C513.157 
      447.468 508.583 455.391 501.157 459.678L287 583.322C279.574 587.609 270.426 
      587.609 263 583.322L48.843 459.678C41.4174 455.391 36.843 447.468 36.843 
      438.894V191.606C36.843 183.032 41.4174 175.109 48.843 170.822L263 47.1782Z"/>
   </mask>
   <g mask="url(#maskBlob)">
      <path d="M263 47.1782C270.426 42.891 279.574 42.891 287 47.1782L501.157 
      170.822C508.583 175.109 513.157 183.032 513.157 191.606V438.894C513.157 
      447.468 508.583 455.391 501.157 459.678L287 583.322C279.574 587.609 270.426 
      587.609 263 583.322L48.843 459.678C41.4174 455.391 36.843 447.468 36.843 
      438.894V191.606C36.843 183.032 41.4174 175.109 48.843 170.822L263 47.1782Z"/>

      <rect x="37" width="476" height="630" fill="url(#pattern0)"/>
   </g>

   <rect x="37" width="476" height="300" fill="url(#pattern1)"/>

   <defs>
      <pattern id="pattern0" patternContentUnits="objectBoundingBox" width="1" height="1">
         <use href="#imageBlob" transform="matrix(0.00143057 0 0 0.00108108 0.0404062 0)"/>
      </pattern>

      <pattern id="pattern1" patternContentUnits="objectBoundingBox" width="1" height="1">
         <use href="#imageBlob" transform="matrix(0.00143057 0 0 0.00226984 0.0404062 0)"/>
      </pattern>

      <!-- Insert your profile (recommended size: 640 x 940) -->
      <image id="imageBlob" width="640" height="925" href=""/>
   </defs>
</svg>
